client/src/assets/images/icon-symptoms-gi-gray.svg

<svg fill="none" height="60" viewBox="0 0 31 60" width="31" xmlns="http://www.w3.org/2000/svg"><g stroke="#808080"><path d="m12.5398 32.4684.1484.4591-1.4477-.534c-.622-.2294-1.47827-.6367-2.28481-1.1109-.79002-.4646-1.61745-1.0424-2.11378-1.6332-2.03972-2.4276-2.35915-5.7279-1.11052-8.4276l.66286-1.4332.692 1.4193c.28289.5802.66721 1.3824 1.10211 2.3417l.00023.0005c.63919 1.4128 1.39143 3.1727 2.09421 5.0589m2.257 3.8594-2.95935-3.5963m2.95935 3.5963c.3865.0191.7762.0081 1.1664-.0326h.0002c.1345-.0141.2505.072.2788.1949 0 .0001.0001.0002.0001.0003l.709 3.1039.0807.3533.327.1563c.6485.31 1.3542.5173 2.1003.5993.2564.0317.5189.0468.7796.0468 1.3179 0 2.5521-.3779 3.5901-1.0357m-9.0322-3.3865 9.0322 3.3865m-11.2892-7.2459c.0002.0004.0003.0009.0005.0013l-.70285.2618m.70235-.2631c-.0001-.0002-.0002-.0005-.0003-.0007l-.70205.2638m.70235-.2631c.0366.0971.1265.2525.2905.477.1475.202.323.4177.5155.6543.0148.0182.0297.0365.0447.055.0391.048.0787.0968.1186.1462m-1.67165-1.0694c.14173.3771.52955.8537.92355 1.3379.0964.1183.1931.2371.2866.3551.1697.0824.3333.158.4869.2252-.0195-.2099-.0292-.4219-.0292-.6357v-.0092c0-.0537 0-.1262.0038-.2039m0 0c.0009-.0171.0019-.0344.0031-.0519m-.0031.0519c.0565.0699.1135.1412.17.2131.1117.142.2216.2866.3218.4294.1166.1661.2357.351.3328.5453-.0522-.317-.0784-.6426-.0784-.9747 0-.0753 0-.1503.0059-.2228.1165-3.2046 2.7455-5.7666 5.9779-5.7666 1.8496 0 3.505.84 4.601 2.1559.4395.5257.7901 1.1265 1.0265 1.7831v.0029c-.5201.8401-1.2156 1.5688-2.0556 2.1419-.4201.2864-.5675.8401-.3367 1.2936l1.2962 2.5228c-.3839.4508-.8372.8401-1.341 1.1548l-9.9173-5.3306m0 0c.1388-3.5985 3.0935-6.4744 6.7269-6.4744 2.0815 0 3.9448.9462 5.1773 2.4259.4936.5906.8889 1.2675 1.1559 2.0091l.0443.1231v.1309.0029.2134l-.1123.1814c-.5758.93-1.3448 1.735-2.2707 2.3667l-.0002.0002c-.1141.0777-.147.2222-.091.3329.0001.0002.0002.0005.0003.0007l1.2949 2.5203.2295.4467-.3256.3823c-.434.5096-.9453.9487-1.5125 1.3032m-10.3168-5.9653 10.3168 5.9653m5.4608-.9266.0003.0016c.3508 1.6932.5803 3.4149.6949 5.144l.9538 18.8931.0004.0081.0006.0082c.0102.1412-.1016.2668-.2531.2668h-3.9976c-.1207 0-.2315-.0909-.25-.2237l-.0005-.0033-2.8781-20.0564c-.0002-.0017-.0004-.0034-.0007-.005-.1021-.7549-.7497-1.3061-1.4994-1.3061h-.0001-.0001-.0001-.0001-.0001-.0001-.0001-.0001-.0001-.0001-.0001-.0001-.0001-.0001-.0001-.0001-.0001-.0001-.0001-.0001-.0001-.0001-.0001-.0001-.0001-.0001-.0001-.0001-.0001-.0001-.0001-.0001-.0001-.0001-.0001-.0001-.0001-.0001-.0001-.0001-.0001-.0001-.0001-.0001-.0001-.0001-.0001-.0001-.0001-.0001-.0001-.0001-.0001-.0001-.0001v-.0001l-.0098.0002c-.8425.011-1.516.709-1.4939 1.5512l.5175 19.7792v.0003c.0034.1478-.1128.2637-.2545.2637h-3.9947c-.1329 0-.2424-.1016-.254-.2303-.0001-.0004-.0001-.0009-.0001-.0013l-1.5993-19.9164-.0005-.0057-.1499-1.7058v-.66l-.6876-.0574c-3.16962-.2645-6.15275-1.7649-8.27596-4.2914-1.91249-2.2768-2.84514-5.0528-2.84514-7.8156 0-2.7696.93637-5.5228 2.766-7.74h.00005l.00598-.0074c.01192-.0149.02795-.0372.04925-.0668.09444-.1316.29255-.4075.69608-.8147.4433-.4473 1.11468-1.0263 2.06189-1.5995.84409.2789 1.74456.4271 2.67792.4271 2.45523 0 4.67523-1.0362 6.23663-2.692.8226-.0142 1.6987.0088 2.6302.077v.0002l.6863.0584c6.2163.5293 11.1163 5.7628 11.1163 12.1155 0 2.9803-1.0766 5.7748-2.9495 7.9409l-.183.2117.0004.2798.75-.001c-.75.001-.75.0014-.75.0017v.0007.0013.0028l.0001.0056.0003.0118c.0002.008.0006.0168.0012.026.0013.0183.0034.04.0071.0643.0049.0316.0138.0769.0319.1298.1683.6374.3142 1.2776.4477 1.9289z" stroke-width="1.5"/><path d="m17.3695 28.3014.0001-.0002.9995-2.0708v-.0001c.1299-.2692.0596-.5872-.1569-.7487v-.0001c-.3069-.229-.7246-.1147-.8814.2107l-.0001.0001-1.8423 3.818-.0001.0001c-.1203.2491-.0535.5603.1964.7382l.0003.0003c.0914.0653.2131.1.3472.1h1.4242c.4451 0 .742.46.5575.8656 0 .0001 0 .0001-.0001.0002l-1.1673 2.57-.0001.0001c-.1271.2796-.0372.6065.1995.7581zm0 0c-.1956.4065.1003.8785.5518.8785h1.3935c.1988 0 .3838.101.4912.2679l.0002.0002c.1077.1669.1231.3774.041.5581h-.0001l-1.9487 4.289v.0001m-.5289-5.9938.5289 5.9938m0 0c-.0975.2149-.3098.3429-.5329.343m.5329-.343-.5329.343m0 0c-.1066 0-.2169-.0297-.3195-.0953z" stroke-width=".5"/><path d="m8.93216 11.5932.02074.0015s.00027.0001.00083.0001l.00255.0001.01021.0003c.00585.0001.01207.0001.01993.0002h.02068c.93574 0 1.8111-.2346 2.576-.6513l.0018-.001c1.6955-.9175 2.8451-2.70912 2.8451-4.77034 0-2.99345-2.4295-5.42276-5.42302-5.42276-2.99583 0-5.42249 2.42901-5.42251 5.42273zm0 0-.02079-.0003m.02079.0003-.02079-.0003m0 0c-2.95165-.049-5.32677-2.45555-5.3269-5.42014z" stroke-width="1.5"/></g></svg>

<svg width="31" height="60" viewBox="0 0 31 60" fill="none" xmlns="http://www.w3.org/2000/svg">
<path d="M12.5398 32.4684L12.6882 32.9275L11.2405 32.3935C10.6185 32.1641 9.76223 31.7568 8.95569 31.2826C8.16567 30.818 7.33824 30.2402 6.84191 29.6494C4.80219 27.2218 4.48276 23.9215 5.73139 21.2218L6.39425 19.7886L7.08625 21.2079C7.36914 21.7881 7.75346 22.5903 8.18836 23.5496L8.18859 23.5501C8.82778 24.9629 9.58002 26.7228 10.2828 28.609M12.5398 32.4684L9.58045 28.8721M12.5398 32.4684C12.9263 32.4875 13.316 32.4765 13.7062 32.4358L13.7064 32.4358C13.8409 32.4217 13.9569 32.5078 13.9852 32.6307C13.9852 32.6308 13.9853 32.6309 13.9853 32.631L14.6943 35.7349L14.775 36.0882L15.102 36.2445C15.7505 36.5545 16.4562 36.7618 17.2023 36.8438C17.4587 36.8755 17.7212 36.8906 17.9819 36.8906C19.2998 36.8906 20.534 36.5127 21.572 35.8549M12.5398 32.4684L21.572 35.8549M10.2828 28.609C10.283 28.6094 10.2831 28.6099 10.2833 28.6103L9.58045 28.8721M10.2828 28.609C10.2827 28.6088 10.2826 28.6085 10.2825 28.6083L9.58045 28.8721M10.2828 28.609C10.3194 28.7061 10.4093 28.8615 10.5733 29.086C10.7208 29.288 10.8963 29.5037 11.0888 29.7403C11.1036 29.7585 11.1185 29.7768 11.1335 29.7953C11.1726 29.8433 11.2122 29.8921 11.2521 29.9415M9.58045 28.8721C9.72218 29.2492 10.11 29.7258 10.504 30.21C10.6004 30.3283 10.6971 30.4471 10.7906 30.5651C10.9603 30.6475 11.1239 30.7231 11.2775 30.7903C11.258 30.5804 11.2483 30.3684 11.2483 30.1546L11.2483 30.1454C11.2483 30.0917 11.2483 30.0192 11.2521 29.9415M11.2521 29.9415C11.253 29.9244 11.254 29.9071 11.2552 29.8896M11.2521 29.9415C11.3086 30.0114 11.3656 30.0827 11.4221 30.1546C11.5338 30.2966 11.6437 30.4412 11.7439 30.584C11.8605 30.7501 11.9796 30.935 12.0767 31.1293C12.0245 30.8123 11.9983 30.4867 11.9983 30.1546C11.9983 30.0793 11.9983 30.0043 12.0042 29.9318C12.1207 26.7272 14.7497 24.1652 17.9821 24.1652C19.8317 24.1652 21.4871 25.0052 22.5831 26.3211C23.0226 26.8468 23.3732 27.4476 23.6096 28.1042V28.1071C23.0895 28.9472 22.394 29.6759 21.554 30.249C21.1339 30.5354 20.9865 31.0891 21.2173 31.5426L22.5135 34.0654C22.1296 34.5162 21.6763 34.9055 21.1725 35.2202L11.2552 29.8896M11.2552 29.8896C11.394 26.2911 14.3487 23.4152 17.9821 23.4152C20.0636 23.4152 21.9269 24.3614 23.1594 25.8411C23.653 26.4317 24.0483 27.1086 24.3153 27.8502L24.3596 27.9733V28.1042V28.1071V28.3205L24.2473 28.5019C23.6715 29.4319 22.9025 30.2369 21.9766 30.8686L21.9764 30.8688C21.8623 30.9465 21.8294 31.091 21.8854 31.2017C21.8855 31.2019 21.8856 31.2022 21.8857 31.2024L23.1806 33.7227L23.4101 34.1694L23.0845 34.5517C22.6505 35.0613 22.1392 35.5004 21.572 35.8549M11.2552 29.8896L21.572 35.8549M27.0328 34.9283L27.0331 34.9299C27.3839 36.6231 27.6134 38.3448 27.728 40.0739L28.6818 58.967L28.6822 58.9751L28.6828 58.9833C28.693 59.1245 28.5812 59.2501 28.4297 59.2501H24.4321C24.3114 59.2501 24.2006 59.1592 24.1821 59.0264L24.1816 59.0231L21.3035 38.9667C21.3033 38.965 21.3031 38.9633 21.3028 38.9617C21.2007 38.2068 20.5531 37.6556 19.8034 37.6556H19.8034H19.8034H19.8034H19.8034H19.8033H19.8033H19.8033H19.8033H19.8033H19.8033H19.8032H19.8032H19.8032H19.8032H19.8032H19.8032H19.8031H19.8031H19.8031H19.8031H19.8031H19.8031H19.8031H19.803H19.803H19.803H19.803H19.803H19.803H19.8029H19.8029H19.8029H19.8029H19.8029H19.8029H19.8029H19.8028H19.8028H19.8028H19.8028H19.8028H19.8027H19.8027H19.8027H19.8027H19.8027H19.8026H19.8026H19.8026H19.8026H19.8025H19.8025H19.8025H19.8025H19.8024H19.8024H19.8024H19.8023H19.8023H19.8023H19.8023H19.8022H19.8022H19.8022H19.8022H19.8021H19.8021H19.8021H19.8021H19.802H19.802H19.802H19.802H19.8019H19.8019H19.8019H19.8019H19.8019H19.8018H19.8018H19.8018H19.8018H19.8017H19.8017H19.8017H19.8017H19.8017H19.8016H19.8016H19.8016H19.8016H19.8016H19.8015H19.8015H19.8015H19.8015H19.8015H19.8014H19.8014H19.8014H19.8014H19.8014H19.8013H19.8013H19.8013H19.8013H19.8013H19.8012H19.8012H19.8012H19.8012H19.8012H19.8011H19.8011H19.8011H19.8011H19.8011H19.8011H19.801H19.801H19.801H19.801H19.801H19.8009H19.8009H19.8009H19.8009H19.8009H19.8009H19.8008H19.8008H19.8008H19.8008H19.8008H19.8008H19.8007H19.8007H19.8007H19.8007H19.8007H19.8007H19.8006H19.8006H19.8006H19.8006H19.8006H19.8006H19.8005H19.8005H19.8005H19.8005H19.8005H19.8005H19.8004H19.8004H19.8004H19.8004H19.8004H19.8004H19.8004H19.8003H19.8003H19.8003H19.8003H19.8003H19.8003H19.8002H19.8002H19.8002H19.8002H19.8002H19.8002H19.8001H19.8001H19.8001H19.8001H19.8001H19.8001H19.8H19.8H19.8H19.8H19.8H19.8H19.7999H19.7999H19.7999H19.7999H19.7999H19.7999H19.7998H19.7998H19.7998H19.7998H19.7998H19.7997H19.7997H19.7997H19.7997H19.7997H19.7997H19.7996H19.7996H19.7996H19.7996H19.7996H19.7995H19.7995H19.7995H19.7995H19.7995H19.7995H19.7994H19.7994H19.7994H19.7994H19.7994H19.7993H19.7993H19.7993H19.7993H19.7993H19.7992H19.7992H19.7992H19.7992H19.7992H19.7991H19.7991H19.7991H19.7991H19.799H19.799H19.799H19.799H19.799H19.7989H19.7989H19.7989H19.7989H19.7988H19.7988H19.7988H19.7988H19.7988H19.7987H19.7987H19.7987H19.7987H19.7986H19.7986H19.7986H19.7986H19.7985H19.7985H19.7985H19.7985H19.7984H19.7984H19.7984H19.7984H19.7983H19.7983H19.7983H19.7983H19.7982H19.7982H19.7982H19.7982H19.7981H19.7981H19.7981H19.7981H19.798H19.798H19.798H19.798H19.798H19.7979H19.7979H19.7979H19.7979H19.7979V37.6555L19.7881 37.6557C18.9456 37.6667 18.2721 38.3647 18.2942 39.2069L18.8117 58.9861C18.8117 58.9862 18.8117 58.9863 18.8117 58.9864C18.8151 59.1342 18.6989 59.2501 18.5572 59.2501H14.5625C14.4296 59.2501 14.3201 59.1485 14.3085 59.0198C14.3084 59.0194 14.3084 59.0189 14.3084 59.0185L12.7091 39.1021L12.7086 39.0964L12.5587 37.3906V36.7306L11.8711 36.6732C8.70148 36.4087 5.71835 34.9083 3.59514 32.3818C1.68265 30.105 0.75 27.329 0.75 24.5662C0.75 21.7966 1.68637 19.0434 3.516 16.8262L3.51605 16.8262L3.52203 16.8188C3.53395 16.8039 3.54998 16.7816 3.57128 16.752C3.66572 16.6204 3.86383 16.3445 4.26736 15.9373C4.71066 15.49 5.38204 14.911 6.32925 14.3378C7.17334 14.6167 8.07381 14.7649 9.00717 14.7649C11.4624 14.7649 13.6824 13.7287 15.2438 12.0729C16.0664 12.0587 16.9425 12.0817 17.874 12.1499V12.1501L18.5603 12.2085C24.7766 12.7378 29.6766 17.9713 29.6766 24.324C29.6766 27.3043 28.6 30.0988 26.7271 32.2649L26.5441 32.4766L26.5445 32.7564L27.2945 32.7554C26.5445 32.7564 26.5445 32.7568 26.5445 32.7571L26.5445 32.7578L26.5445 32.7591L26.5445 32.7619L26.5446 32.7675L26.5449 32.7793C26.5451 32.7873 26.5455 32.7961 26.5461 32.8053C26.5474 32.8236 26.5495 32.8453 26.5532 32.8696C26.5581 32.9012 26.567 32.9465 26.5851 32.9994C26.7534 33.6368 26.8993 34.277 27.0328 34.9283Z" stroke="#808080" stroke-width="1.5"/>
<path d="M17.3695 28.3014L17.3696 28.3012L18.3691 26.2304C18.3691 26.2304 18.3691 26.2303 18.3691 26.2303C18.499 25.9611 18.4287 25.6431 18.2122 25.4816L18.2122 25.4815C17.9053 25.2525 17.4876 25.3668 17.3308 25.6922L17.3307 25.6923L15.4884 29.5103L15.4883 29.5104C15.368 29.7595 15.4348 30.0707 15.6847 30.2486L15.685 30.2489C15.7764 30.3142 15.8981 30.3489 16.0322 30.3489H17.4564C17.9015 30.3489 18.1984 30.8089 18.0139 31.2145C18.0139 31.2146 18.0139 31.2146 18.0138 31.2147L16.8465 33.7847L16.8464 33.7848C16.7193 34.0644 16.8092 34.3913 17.0459 34.5429L17.3695 28.3014ZM17.3695 28.3014C17.1739 28.7079 17.4698 29.1799 17.9213 29.1799H19.3148C19.5136 29.1799 19.6986 29.2809 19.806 29.4478L19.8062 29.448C19.9139 29.6149 19.9293 29.8254 19.8472 30.0061L19.8471 30.0061L17.8984 34.2951L17.8984 34.2952M17.3695 28.3014L17.8984 34.2952M17.8984 34.2952C17.8009 34.5101 17.5886 34.6381 17.3655 34.6382M17.8984 34.2952L17.3655 34.6382M17.3655 34.6382C17.2589 34.6382 17.1486 34.6085 17.046 34.5429L17.3655 34.6382Z" stroke="#808080" stroke-width="0.5"/>
<path d="M8.93216 11.5932L8.9529 11.5947C8.9529 11.5947 8.95317 11.5948 8.95373 11.5948L8.95628 11.5949L8.96649 11.5952C8.97234 11.5953 8.97856 11.5953 8.98642 11.5954C8.99224 11.5954 8.99897 11.5954 9.0071 11.5954C9.94284 11.5954 10.8182 11.3608 11.5831 10.9441L11.5849 10.9431C13.2804 10.0256 14.43 8.23398 14.43 6.17276C14.43 3.17931 12.0005 0.75 9.00698 0.75C6.01115 0.75 3.58449 3.17901 3.58447 6.17273L8.93216 11.5932ZM8.93216 11.5932L8.91137 11.5929M8.93216 11.5932L8.91137 11.5929M8.91137 11.5929C5.95972 11.5439 3.5846 9.13735 3.58447 6.17276L8.91137 11.5929Z" stroke="#808080" stroke-width="1.5"/>
</svg>
